lib/icons/alert.svg

<svg width="16" height="14" viewBox="0 0 16 14" fill="none" xmlns="http://www.w3.org/2000/svg">
<path fill-rule="evenodd" clip-rule="evenodd" d="M4.39785 0.917788C4.62855 0.766035 4.69256 0.45599 4.54081 0.225283C4.38905 -0.00542398 4.07901 -0.0694286 3.8483 0.0823244C1.53221 1.60579 0 4.1305 0 7.00187C0 9.87049 1.52928 12.3931 3.84165 13.917C4.07223 14.069 4.38233 14.0053 4.53428 13.7747C4.68624 13.5441 4.6225 13.234 4.39193 13.0821C2.33035 11.7234 1 9.49989 1 7.00187C1 4.50146 2.3329 2.27606 4.39785 0.917788ZM12.1523 0.0823244C11.9216 -0.0694286 11.6116 -0.00542398 11.4598 0.225283C11.3081 0.45599 11.3721 0.766035 11.6028 0.917788C13.6677 2.27606 15.0006 4.50146 15.0006 7.00187C15.0006 9.49989 13.6703 11.7234 11.6087 13.0821C11.3781 13.234 11.3144 13.5441 11.4664 13.7747C11.6183 14.0053 11.9284 14.069 12.159 13.917C14.4714 12.3931 16.0006 9.87049 16.0006 7.00187C16.0006 4.1305 14.4684 1.60579 12.1523 0.0823244ZM10.2146 6.99975C10.2146 8.25269 9.21287 9.24962 8.00019 9.24962C6.78751 9.24962 5.78577 8.25269 5.78577 6.99975C5.78577 5.74681 6.78751 4.74988 8.00019 4.74988C9.21287 4.74988 10.2146 5.74681 10.2146 6.99975ZM11.2146 6.99975C11.2146 8.79461 9.77547 10.2496 8.00019 10.2496C6.22491 10.2496 4.78577 8.79461 4.78577 6.99975C4.78577 5.2049 6.22491 3.74988 8.00019 3.74988C9.77547 3.74988 11.2146 5.2049 11.2146 6.99975Z" fill="#FF6363"/>
</svg>

<svg width="16" height="14" fill="none" xmlns="http://www.w3.org/2000/svg"><path fill-rule="evenodd" clip-rule="evenodd" d="M4.398.918a.5.5 0 0 0-.55-.836C1.532 1.606 0 4.13 0 7.002c0 2.868 1.53 5.391 3.842 6.915a.5.5 0 1 0 .55-.835C2.33 11.723 1 9.5 1 7.002c0-2.5 1.333-4.726 3.398-6.084Zm7.754-.836a.5.5 0 1 0-.55.836c2.066 1.358 3.399 3.583 3.399 6.084 0 2.498-1.33 4.721-3.392 6.08a.5.5 0 1 0 .55.835c2.312-1.524 3.842-4.047 3.842-6.915 0-2.872-1.533-5.396-3.849-6.92ZM10.215 7c0 1.253-1.002 2.25-2.215 2.25-1.212 0-2.214-.997-2.214-2.25 0-1.253 1.002-2.25 2.214-2.25 1.213 0 2.215.997 2.215 2.25Zm1 0c0 1.795-1.44 3.25-3.215 3.25S4.786 8.795 4.786 7 6.225 3.75 8 3.75 11.215 5.205 11.215 7Z" fill="#FF6363"/></svg>
